Yosa-Max-Dark/places/16x16/folder-black.svg

<?xml version="1.0" encoding="UTF-8" standalone="no"?>
<svg
   xmlns:dc="http://purl.org/dc/elements/1.1/"
   xmlns:cc="http://creativecommons.org/ns#"
   xmlns:rdf="http://www.w3.org/1999/02/22-rdf-syntax-ns#"
   xmlns:svg="http://www.w3.org/2000/svg"
   xmlns="http://www.w3.org/2000/svg"
   id="svg3"
   version="1.1"
   viewBox="0 0 16 16">
  <metadata
     id="metadata9">
    <rdf:RDF>
      <cc:Work
         rdf:about="">
        <dc:format>image/svg+xml</dc:format>
        <dc:type
           rdf:resource="http://purl.org/dc/dcmitype/StillImage" />
        <dc:title></dc:title>
      </cc:Work>
    </rdf:RDF>
  </metadata>
  <defs
     id="defs7" />
  <path
     style="fill:#dfdfdf;fill-opacity:1;stroke:none"
     d="m 2,2 v 1 3.0000005 1 V 13 14 H 14 V 13 6.0000005 4.9999995 4 H 9.007812 l -2,-2 -0.0078,0.00781 V 2 h -4 z M 3,3 H 6.591796 L 7.59375,4 H 7 V 4.00781 L 6.9922,4 4.992199,6.0000005 H 3.00001 Z"
     id="path823" />
</svg>

<?xml version="1.0" encoding="UTF-8"?>
<svg id="svg3" version="1.1" viewBox="0 0 16 16" xmlns="http://www.w3.org/2000/svg">
 <path id="path823" d="m2 2v12h12v-10h-4.992188l-2-2-0.0078 0.00781v-0.00781h-4zm1 1h3.591796l1.001954 1h-0.59375v0.00781l-0.0078-0.00781-2.000001 2.0000005h-1.992189z" style="fill:#dfdfdf"/>
</svg>
